kwork_juristConsalt/img/svg/guarantee.svg

<svg width="100" height="100" viewBox="0 0 100 100" fill="none" xmlns="http://www.w3.org/2000/svg">
<path d="M50 100C49.657 100 49.3141 99.9397 48.9871 99.8193C37.482 95.5805 27.6938 88.0238 20.6807 77.9662C13.6678 67.9088 9.96094 56.1119 9.96094 43.8508V10.7422C9.96094 9.56348 10.6674 8.49961 11.7539 8.04219C24.4275 2.70586 37.2955 0 50 0C62.7045 0 75.5725 2.70586 88.2461 8.04219C89.3326 8.49961 90.0391 9.56348 90.0391 10.7422V43.8508C90.0391 56.1119 86.3322 67.909 79.3191 77.9666C72.3061 88.024 62.518 95.5809 51.0127 99.8195C50.6859 99.9396 50.343 100 50 100Z" fill="#A2E786"/>
<path d="M79.3191 77.9664C86.3322 67.9088 90.0391 56.1119 90.0391 43.8508V10.7422C90.0391 9.56348 89.3326 8.49961 88.2461 8.04219C75.5725 2.70586 62.7045 0 50 0V100C50.343 100 50.6859 99.9397 51.0129 99.8193C62.518 95.5807 72.3061 88.024 79.3191 77.9664Z" fill="#00CB75"/>
<path d="M15.8203 12.7067V43.8508C15.8203 65.9221 29.5104 85.9118 50 93.9364C70.4896 85.9118 84.1797 65.9221 84.1797 43.8508V12.7067C61.4891 3.63716 38.5109 3.63716 15.8203 12.7067Z" fill="#E2DFF4"/>
<path d="M84.1797 43.8508V12.7067C72.8344 8.17192 61.4172 5.90454 50 5.90454V93.9364C70.4896 85.9118 84.1797 65.9221 84.1797 43.8508Z" fill="#D5D3EA"/>
<path d="M50 87.2799C49.5625 87.2799 49.1248 87.1818 48.7209 86.9859C40.6699 83.0789 33.8748 76.9812 29.0701 69.3521C24.2352 61.6752 21.6797 52.8574 21.6797 43.8516V18.8541C21.6797 17.5887 22.4924 16.4658 23.6947 16.0709C32.4826 13.183 41.333 11.7188 50 11.7188C58.667 11.7188 67.5174 13.183 76.3053 16.0709C77.5076 16.466 78.3203 17.5887 78.3203 18.8541V43.8516C78.3203 52.8574 75.7648 61.6754 70.9299 69.3521C66.125 76.9814 59.3299 83.0789 51.2791 86.9859C50.8752 87.1818 50.4375 87.2799 50 87.2799Z" fill="#FFF5F5"/>
<path d="M51.2791 86.9859C59.3301 83.0789 66.1252 76.9812 70.9299 69.3521C75.7648 61.6752 78.3203 52.8574 78.3203 43.8516V18.8541C78.3203 17.5887 77.5076 16.4658 76.3053 16.0709C67.5174 13.183 58.667 11.7188 50 11.7188V87.2799C50.4375 87.2799 50.8752 87.1818 51.2791 86.9859Z" fill="#E2DFF4"/>
<path d="M43.0947 59.758L36.1895 52.8527C35.0453 51.7086 35.0453 49.8537 36.1895 48.7096C37.3336 47.5654 39.1885 47.5654 40.3326 48.7096L45.1664 53.5434L59.6678 39.042C60.8119 37.8979 62.6668 37.8979 63.811 39.042C64.9551 40.1861 64.9551 42.041 63.811 43.1852L47.2379 59.7582C46.0938 60.9022 44.2387 60.9022 43.0947 59.758Z" fill="#0A789B"/>
<path d="M59.6676 39.042L50 48.7096V56.9959L63.8107 43.1852C64.9549 42.041 64.9549 40.1861 63.8107 39.042C62.6666 37.8979 60.8117 37.8979 59.6676 39.042Z" fill="#08475E"/>
</svg>

<svg width="100" height="100" fill="none" xmlns="http://www.w3.org/2000/svg"><path d="M50 100a2.93 2.93 0 01-1.013-.18c-11.505-4.24-21.293-11.796-28.306-21.854C13.668 67.91 9.96 56.112 9.96 43.851V10.742a2.93 2.93 0 011.793-2.7C24.427 2.706 37.295 0 50 0c12.705 0 25.573 2.706 38.246 8.042a2.93 2.93 0 011.793 2.7v33.109c0 12.26-3.707 24.058-10.72 34.116C72.306 88.024 62.518 95.58 51.013 99.82c-.327.12-.67.18-1.013.18z" fill="#A2E786"/><path d="M79.32 77.966c7.012-10.057 10.72-21.854 10.72-34.115V10.742a2.93 2.93 0 00-1.794-2.7C75.573 2.706 62.705 0 50 0v100c.343 0 .686-.06 1.013-.18 11.505-4.24 21.293-11.796 28.306-21.854z" fill="#00CB75"/><path d="M15.82 12.707V43.85c0 22.071 13.69 42.06 34.18 50.085 20.49-8.024 34.18-28.014 34.18-50.085V12.707c-22.69-9.07-45.67-9.07-68.36 0z" fill="#E2DFF4"/><path d="M84.18 43.85V12.708C72.834 8.172 61.417 5.905 50 5.905v88.031c20.49-8.024 34.18-28.014 34.18-50.085z" fill="#D5D3EA"/><path d="M50 87.28a2.93 2.93 0 01-1.28-.294c-8.05-3.907-14.845-10.005-19.65-17.634-4.835-7.677-7.39-16.495-7.39-25.5V18.854a2.93 2.93 0 012.015-2.783c8.788-2.888 17.638-4.352 26.305-4.352 8.667 0 17.517 1.464 26.305 4.352a2.93 2.93 0 012.015 2.783v24.998c0 9.005-2.555 17.823-7.39 25.5-4.805 7.63-11.6 13.727-19.65 17.634a2.93 2.93 0 01-1.28.294z" fill="#FFF5F5"/><path d="M51.28 86.986c8.05-3.907 14.845-10.005 19.65-17.634 4.835-7.677 7.39-16.495 7.39-25.5V18.854a2.93 2.93 0 00-2.015-2.783C67.517 13.183 58.667 11.719 50 11.719v75.56a2.93 2.93 0 001.28-.293z" fill="#E2DFF4"/><path d="M43.095 59.758l-6.905-6.905a2.93 2.93 0 114.143-4.143l4.833 4.833 14.502-14.501a2.93 2.93 0 014.143 4.143L47.238 59.758a2.93 2.93 0 01-4.143 0z" fill="#0A789B"/><path d="M59.668 39.042L50 48.71v8.286l13.81-13.81a2.93 2.93 0 10-4.142-4.144z" fill="#08475E"/></svg>
